wp-content/themes/canvas/img/hand.svg

<svg height="28" viewBox="0 0 26 28" width="26" xmlns="http://www.w3.org/2000/svg"><path d="m31.5126953 26.3125h13.0810547v2.34375h-13.0810547c-2.0947266 0-3.6474609-1.2304688-3.7939453-3.0029297-.1171875-1.40625.4541016-2.4902344.9082031-3.3544922.2783203-.5126953.5273438-.9960937.5126953-1.3183593-.0146484-.2783204-.1464843-.4833985-.3808593-.6152344-.3515625-.1904297-.8642579-.1757813-1.2744141.0585937-.8642578.4833985-5.5664063 3.9550781-6.8554688 8.671875-.8203125 2.9736328-.3808593 5.8007813 1.2597657 7.9541016 1.6113281 2.109375 4.1601562 3.3251953 7.0166015 3.3251953h12.8759766v2.34375h-12.8759766c-3.5888672 0-6.8115234-1.5380859-8.8769531-4.2480469-2.0800781-2.7539062-2.6806641-6.3134765-1.6552734-10.0048828 1.4941406-5.4638672 6.7529297-9.4042969 7.96875-10.0927734 1.1132812-.6298828 2.4755859-.6445313 3.5449218-.0585938.9375.5126953 1.5234375 1.4355469 1.5820313 2.5341797.0585937.9814453-.3808594 1.8017578-.7763672 2.5488281-.3808594.7177735-.703125 1.3476563-.6445312 2.0654297.0439453.6298828.8203125.8496094 1.4648437.8496094zm-.0439453 7.03125v-2.34375h13.125v2.34375zm0 4.6875v-2.34375h12.65625v2.34375z" fill="#93dddf" fill-rule="evenodd" transform="matrix(0 -1 1 0 -17.064516 45.541638)"/></svg>

<?xml version="1.0" encoding="UTF-8"?>
<svg width="26px" height="28px" viewBox="0 0 26 28" version="1.1" xmlns="http://www.w3.org/2000/svg" xmlns:xlink="http://www.w3.org/1999/xlink">
    <!-- Generator: Sketch 51.2 (57519) - http://www.bohemiancoding.com/sketch -->
    <title>hand</title>
    <desc>Created with Sketch.</desc>
    <defs></defs>
    <g id="Page-1" stroke="none" stroke-width="1" fill="none" fill-rule="evenodd">
        <g id="Concept-Two" transform="translate(-342.000000, -2568.000000)" fill="#93DDDF">
            <g id="Group-4" transform="translate(324.000000, 2390.000000)">
                <g id="Group-Copy-2" transform="translate(0.000000, 162.000000)">
                    <path d="M31.5126953,26.3125 L44.59375,26.3125 L44.59375,28.65625 L31.5126953,28.65625 C29.4179687,28.65625 27.8652344,27.4257812 27.71875,25.6533203 C27.6015625,24.2470703 28.1728516,23.1630859 28.6269531,22.2988281 C28.9052734,21.7861328 29.1542969,21.3027344 29.1396484,20.9804688 C29.125,20.7021484 28.9931641,20.4970703 28.7587891,20.3652344 C28.4072266,20.1748047 27.8945312,20.1894531 27.484375,20.4238281 C26.6201172,20.9072266 21.9179687,24.3789062 20.6289062,29.0957031 C19.8085937,32.0693359 20.2480469,34.8964844 21.8886719,37.0498047 C23.5,39.1591797 26.0488281,40.375 28.9052734,40.375 L41.78125,40.375 L41.78125,42.71875 L28.9052734,42.71875 C25.3164062,42.71875 22.09375,41.1806641 20.0283203,38.4707031 C17.9482422,35.7167969 17.3476562,32.1572266 18.3730469,28.4658203 C19.8671875,23.0019531 25.1259766,19.0615234 26.3417969,18.3730469 C27.4550781,17.7431641 28.8173828,17.7285156 29.8867187,18.3144531 C30.8242187,18.8271484 31.4101562,19.75 31.46875,20.8486328 C31.5273437,21.8300781 31.0878906,22.6503906 30.6923828,23.3974609 C30.3115234,24.1152344 29.9892578,24.7451172 30.0478516,25.4628906 C30.0917969,26.0927734 30.8681641,26.3125 31.5126953,26.3125 Z M31.46875,33.34375 L31.46875,31 L44.59375,31 L44.59375,33.34375 L31.46875,33.34375 Z M31.46875,38.03125 L31.46875,35.6875 L44.125,35.6875 L44.125,38.03125 L31.46875,38.03125 Z" id="hand" transform="translate(31.238561, 30.303077) rotate(-90.000000) translate(-31.238561, -30.303077) "></path>
                </g>
            </g>
        </g>
    </g>
</svg>
